X:1
T: Kelligrews Strathspey
P:Based on a traditional Newfoundland tune; adapted by Bruce Shawyer
R:Strathspey
Q: 128
K:A
M:4/4
L:1/16
|:E2A2|cc3 c3c BB3 B3B|A3G A3B c6 c2|dd3 d3d cc3 c3c|B3c B3G E6 E2|
cc3 c3c BB3 B3B|A3G A3B c6 c2|dd3 d3d cc3 c3c|B3d c3B A4 E3A|
c4 c4 B4 B4|A3G A3B cc3 c3c|dd3 d3d cc3 c3c|B3c B3G E8|
c4 c4 B4 B4|A3G A3B cc3 c3c|dd3 d3d cc3 c3c|B3d c3B A4:|
